X:2011 
T:Eaisht oo as chlashtyn as mee singal oo arrane 
C:John Cubbon, Cross y Caley
O:Isle of Man
S:Traditional
Z:Clague collection
B:Kiaull Vannin #11
M:2/4 
L:1/8 
Q:140 
K:G 
d2 BA|G2 FG|GB AG|G4|G2 Bd|g2 ge|dd dd|d4| 
G2 Bd|g2 ee|dB Bd|d4|G2 Bd|c2 GB|AF GG|G4|| 
